X: 43267
T: Women Of Monaghan, The
R: jig
M: 6/8
K: Dmajor
FE|:DB,C DEF|d3 c3|Bcd cAc|B^GB AFE|
DB,C DEF|d3 c3|BAG FGE|1 D3 DFE:|2 D3 DFA||
|:d2B cde|c2A ABc|d2B cde|f2B B2c|
dcB ABc|edc d2c|BAF GFE|1 D3 DFA:|2 D3 DFE||

